web/themes/custom/surf_main/images/icons/ui-icon-phone.svg

<svg fill="none" height="28" viewBox="0 0 28 28" width="28" xmlns="http://www.w3.org/2000/svg"><path d="m2.54821 3.44242-.01441.00298-.01451.00242c-.0463.00773-.07736.02072-.10871.0399-.02546.01558-.05629.03848-.09747.07557-.07577.14242-.0908.22413-.0908.26415 0 3.95511.98536 7.61956 2.95798 11.00696 1.98061 3.3039 4.56504 5.9352 7.85101 7.8622 3.3837 1.9762 7.0441 2.9632 10.9948 2.9632.1093 0 .1618-.0099.1852-.017.0059-.0017.0091-.0031.0104-.0037.0005-.0004.0014-.0013.0028-.0026l.0653-.0654.0791-.0475c.0103-.0062.016-.0113.0189-.0141.0028-.0028.0036-.0043.0037-.0044 0 0 .0003-.0005.0008-.0023.0005-.0019.0017-.0074.0017-.0177v-.0838l.0185-.0817 1.2083-5.3409-6.003-2.6535-1.7009 2.2849-.3636.4884-.5527-.2554c-1.9706-.9107-3.7485-2.1293-5.2755-3.7081-1.515-1.5179-2.7812-3.292-3.69444-5.2732l-.25491-.553.48885-.36305 2.3048-1.71172-2.55207-5.92635z" stroke="#222" stroke-width="1.5"/></svg>

<svg width="28" height="28" viewBox="0 0 28 28" fill="none" xmlns="http://www.w3.org/2000/svg">
<path d="M2.54821 3.44242L2.5338 3.4454L2.51929 3.44782C2.47299 3.45555 2.44193 3.46854 2.41058 3.48772C2.38512 3.5033 2.35429 3.5262 2.31311 3.56329C2.23734 3.70571 2.22231 3.78742 2.22231 3.82744C2.22231 7.78255 3.20767 11.447 5.18029 14.8344C7.1609 18.1383 9.74533 20.7696 13.0313 22.6966C16.415 24.6728 20.0754 25.6598 24.0261 25.6598C24.1354 25.6598 24.1879 25.6499 24.2113 25.6428C24.2172 25.6411 24.2204 25.6397 24.2217 25.6391C24.2222 25.6387 24.2231 25.6378 24.2245 25.6365L24.2898 25.5711L24.3689 25.5236C24.3792 25.5174 24.3849 25.5123 24.3878 25.5095C24.3906 25.5067 24.3914 25.5052 24.3915 25.5051C24.3915 25.5051 24.3918 25.5046 24.3923 25.5028C24.3928 25.5009 24.394 25.4954 24.394 25.4851V25.4013L24.4125 25.3196L25.6208 19.9787L19.6178 17.3252L17.9169 19.6101L17.5533 20.0985L17.0006 19.8431C15.03 18.9324 13.2521 17.7138 11.7251 16.135C10.2101 14.6171 8.9439 12.843 8.03066 10.8618L7.77575 10.3088L8.2646 9.94575L10.5694 8.23403L8.01733 2.30768L2.54821 3.44242Z" stroke="#222222" stroke-width="1.5"/>
</svg>
